X: 1
T: Neil Killeen's
M: 6/8
L: 1/8
R: jig
K: Edor
|:BEE FEF|BEE EFA|BEE FEF|BAF DFA|
BEE FEF|BEE EDB,|DEF A2A|AFE EFA:|
|:Bee dcB|AFE DEA|Bee d2e|fed efd|
Bee fed|AFE D2E|DEF A2B|AFE EFA:|
